actions/22x22-dark/view-certificate-sign.svg

<svg viewBox="0 0 22 22" xmlns="http://www.w3.org/2000/svg"><path d="m3.56744 4.2c-.314768 0-.56744.269424-.56744.60312v11.593752c0 .333704.252672.603128.56744.603128h14.865128c.314776 0 .567432-.269424.567432-.603128v-11.593752c0-.333696-.252648-.60312-.567432-.60312zm5.789232 3.559376c.919504 0 1.662488.789248 1.662488 1.764056 0 .974816-.742976 1.762504-1.662488 1.762504-.2152 0-.411976-.04088-.588064-.103128l-.87988.932816h-.586584v.621872h-.586592v.62188h-.978632v-1.035944l2.054528-2.17812c-.05872-.207408-.098744-.414472-.098744-.62188 0-.974808.744472-1.764056 1.663968-1.764056zm6.00148.04064c.0476 0 .09298.02048.126744.05624l.72512.768752c.07024.07448.07024.195808 0 .270312l-.403816.429688-.980096-1.039064.403832-.429688c.03376-.03576.0806-.05624.128224-.05624zm-5.51364.582808c-.332592 0-.586592.26928-.586592.62188 0 .352592.254.621872.586592.621872.332584 0 .588056-.26928.588056-.621872 0-.3526-.255472-.62188-.588056-.62188zm4.853352.03752.980112 1.039064-.140024.148432-.980096-1.039064.140016-.148432zm-.26676.284376.980096 1.039056-.141488.14844-.980104-1.039064.141504-.148432zm-.268248.282808.980104 1.040624-2.761968 2.928128c-.01968.02088-.04424.03584-.07072.04528l-1.09212.389064c-.0188.0064-.03832.0094-.05752.0094-.04696 0-.09253-.01992-.12676-.05624-.0484-.05128-.0644-.126576-.04272-.195312l.36552-1.157816c.0089-.02792.02456-.05408.04416-.07496l2.761968-2.928168z" fill="#f2f2f2"/></svg>

<?xml version="1.0" encoding="UTF-8" standalone="no"?>
<svg
   xmlns:dc="http://purl.org/dc/elements/1.1/"
   xmlns:cc="http://creativecommons.org/ns#"
   xmlns:rdf="http://www.w3.org/1999/02/22-rdf-syntax-ns#"
   xmlns:svg="http://www.w3.org/2000/svg"
   xmlns="http://www.w3.org/2000/svg"
   xmlns:sodipodi="http://sodipodi.sourceforge.net/DTD/sodipodi-0.dtd"
   xmlns:inkscape="http://www.inkscape.org/namespaces/inkscape"
   viewBox="0 0 22 22"
   id="svg3545"
   version="1.1"
   inkscape:version="0.91 r13725"
   sodipodi:docname="view-certificate-sign.svg">
  <metadata
     id="metadata3553">
    <rdf:RDF>
      <cc:Work
         rdf:about="">
        <dc:format>image/svg+xml</dc:format>
        <dc:type
           rdf:resource="http://purl.org/dc/dcmitype/StillImage" />
      </cc:Work>
    </rdf:RDF>
  </metadata>
  <sodipodi:namedview
     pagecolor="#ffffff"
     bordercolor="#666666"
     borderopacity="1"
     objecttolerance="10"
     gridtolerance="10"
     guidetolerance="10"
     inkscape:pageopacity="0"
     inkscape:pageshadow="2"
     inkscape:window-width="640"
     inkscape:window-height="480"
     id="namedview3551"
     showgrid="false"
     inkscape:zoom="28.954545"
     inkscape:cx="4.8524333"
     inkscape:cy="11"
     inkscape:current-layer="svg3545" />
  <defs
     id="defs3051">
    <style
       type="text/css"
       id="current-color-scheme">
      .ColorScheme-Text {
        color:#f2f2f2
      }
      </style>
  </defs>
  <path
     style="color:#f2f2f2;fill:currentColor;fill-opacity:1;stroke:none"
     class="ColorScheme-Text"
     d="M 3.56744,4.2 C 3.252672,4.2 3,4.469424 3,4.80312 L 3,16.396872 C 3,16.730576 3.252672,17 3.56744,17 l 14.865128,0 C 18.747344,17 19,16.730576 19,16.396872 L 19,4.80312 C 19,4.469424 18.747352,4.2 18.432568,4.2 L 3.56744,4.2 Z m 5.789232,3.559376 c 0.919504,0 1.662488,0.789248 1.662488,1.764056 0,0.974816 -0.742976,1.762504 -1.662488,1.762504 -0.2152,0 -0.411976,-0.04088 -0.588064,-0.103128 l -0.87988,0.932816 -0.586584,0 0,0.621872 -0.586592,0 0,0.62188 -0.978632,0 0,-1.035944 2.054528,-2.17812 C 7.732728,9.937904 7.692704,9.73084 7.692704,9.523432 c 0,-0.974808 0.744472,-1.764056 1.663968,-1.764056 z m 6.00148,0.04064 c 0.0476,0 0.09298,0.02048 0.126744,0.05624 l 0.72512,0.768752 c 0.07024,0.07448 0.07024,0.195808 0,0.270312 L 15.8062,9.325008 14.826104,8.285944 15.229936,7.856256 c 0.03376,-0.03576 0.0806,-0.05624 0.128224,-0.05624 z m -5.51364,0.582808 c -0.332592,0 -0.586592,0.26928 -0.586592,0.62188 0,0.352592 0.254,0.621872 0.586592,0.621872 0.332584,0 0.588056,-0.26928 0.588056,-0.621872 0,-0.3526 -0.255472,-0.62188 -0.588056,-0.62188 z m 4.853352,0.03752 0.980112,1.039064 L 15.537952,9.60784 14.557856,8.568776 14.697872,8.420344 Z M 14.431104,8.70472 15.4112,9.743776 15.269712,9.892216 14.289608,8.853152 14.431112,8.70472 Z m -0.268248,0.282808 0.980104,1.040624 -2.761968,2.928128 c -0.01968,0.02088 -0.04424,0.03584 -0.07072,0.04528 l -1.09212,0.389064 c -0.0188,0.0064 -0.03832,0.0094 -0.05752,0.0094 -0.04696,0 -0.09253,-0.01992 -0.12676,-0.05624 -0.0484,-0.05128 -0.0644,-0.126576 -0.04272,-0.195312 l 0.36552,-1.157816 c 0.0089,-0.02792 0.02456,-0.05408 0.04416,-0.07496 L 14.1628,8.987528 Z"
     id="path3549"
     inkscape:connector-curvature="0" />
</svg>
